!! 00000] TT[WS
!!!OTL: Jian lantan
!!!ARE: Asia, China, Shanxi Pingjie
!! Ethnic Group: Han
!! WII, 172 (1)
!!!SCT: J0658
!!!YEM: Copyright 1995, estate of Helmut Schaffrath.
**kern
*ICvox
*Ivox
*M4/4
*k[b-]
*F:
{4cc
4cc
8dd
8cc
8b-
8cc
=1
8dd
8ff
8cc
8b-
4g
8f
8g
=2
4b-
8g
8b-
8cc
8dd
8cc
8g
=3
8.f
16g
8f
8e
2f}
=4
{4b-
8b-
8g
4cc
8cc
8dd
=5
8cc
8b-
8g
8cc
4e
4c
=6
8cc
8a
8g
8cc
4g
4e
=7
8f
4c
8d
2c}
==
!!!AGN: Xiaodiao, Qingge
!!!ONB: ESAC (Essen Associative Code) Database: CHINA
!!!AMT: simple quadruple
!!!AIN: vox
!!!EED: Helmut Schaffrath
!!!EEV: 1.0
*-
